front/assets/images/icone-contenu.svg

<svg width="24" height="24" viewBox="0 0 24 24" fill="none" xmlns="http://www.w3.org/2000/svg">
    <path fill-rule="evenodd" clip-rule="evenodd" d="M14 2V8C14 8.55228 14.4477 9 15 9H21V20.993C21.0019 21.2582 20.8983 21.5133 20.7121 21.7022C20.5258 21.891 20.2722 21.9981 20.007 22H3.993C3.44497 22 3.00055 21.556 3 21.008V2.992C3 2.455 3.447 2 3.998 2H14ZM16 15H8V17H16V15ZM16 11H8V13H16V11ZM11 7H8V9H11V7ZM16 2.003L21 7H16V2.003Z" fill="#0D0C21"/>
</svg>

<svg xmlns="http://www.w3.org/2000/svg" width="24" height="24" fill="none"><path fill="#0D0C21" fill-rule="evenodd" d="M14 2v6a1 1 0 0 0 1 1h6v11.993A1 1 0 0 1 20.007 22H3.993A.993.993 0 0 1 3 21.008V2.992C3 2.455 3.447 2 3.998 2zm2 13H8v2h8zm0-4H8v2h8zm-5-4H8v2h3zm5-4.997L21 7h-5z" clip-rule="evenodd"/></svg>
